!!!!SEGMENT: Any1004e-Missa_Queramus_cum_pastoribus-Agnus--Cambrai_3.krn
!!!id: Any1004e
!!!SMS: Cambrai 3
!!!AGN: Mass; Agnus
!!!voices: 2-4
!!!OPR: Missa Queramus cum pastoribus (Cambrai 3)
!!!COM: Anonymous
!!!OTL: Agnus
**kern	**kern	**kern	**kern
*part4	*part3	*part2	*part1
*staff4	*staff3	*staff2	*staff1
*I"Bassus	*I"Tenor	*I"Altus	*I"Superius
*I'B	*I'T	*I'A	*I'S
*clefF4	*clefGv2	*clefGv2	*clefG2
*k[b-]	*k[b-]	*k[b-]	*k[b-]
*F:	*F:	*F:	*F:
*M2/1	*M2/1	*M2/1	*M2/1
*met(C|)	*met(C|)	*met(C|)	*met(C|)
=1	=1	=1	=1
!!section: Agnus Dei I
!!!OMD: Agnus Dei I
0F	0r	0r	0r
=2	=2	=2	=2
1F	0c	0r	0r
1C	.	.	.
=3	=3	=3	=3
1.F	1c	0r	0cc
.	1F	.	.
4E	.	.	.
4D	.	.	.
=4	=4	=4	=4
2E	1c	0r	1cc
2F	.	.	.
2D	2B-y	.	1f
[2F	[2A	.	.
=5	=5	=5	=5
2F]	2A]	0r	1.cc
4E	4G	.	.
4D	4F	.	.
2E	2G	.	.
2F	2A	.	2cc
=6	=6	=6	=6
1BB-y	2B-y	1.f	1b-y
.	2.d	.	.
2r	.	.	[1a
.	4c	.	.
[2F	4A	2d	.
.	4B-y	.	.
=7	=7	=7	=7
4F]	1c	1f	1a]
4G	.	.	.
4A	.	.	.
4B-y	.	.	.
2c	2r	2e	2g
2A	2c	2f	2a
=8	=8	=8	=8
1G	2d	1g	1b-y
.	2e	.	.
1F	2A	1a	2r
.	[2F	.	[2cc
=9	=9	=9	=9
2r	4F]	0f	4cc]
.	4G	.	4b-y
2.F	4A	.	4a
.	4B-y	.	4g
.	2.c	.	1a
4G	.	.	.
4A	.	.	.
4B-y	4d	.	.
=10	=10	=10	=10
2c	2e	0r	0r
2A	2.f	.	.
1G	.	.	.
.	8eL	.	.
.	8dJ	.	.
.	2e	.	.
=11	=11	=11	=11
0F	0f	1.a	2r
.	.	.	4f
.	.	.	4g
.	.	.	4a
.	.	.	4b-y
.	.	2a	4cc
.	.	.	4a
=12	=12	=12	=12
0r	0r	2g	2b-y
.	.	4f	2.cc
.	.	4e	.
.	.	4d	.
.	.	4c	8bnXiL
.	.	.	8aJ
.	.	2d	2bni
=13	=13	=13	=13
1.A	2r	0c	0cc
.	4F	.	.
.	4G	.	.
.	4A	.	.
.	4B-y	.	.
2A	4c	.	.
.	4A	.	.
=14	=14	=14	=14
2G	2B-y	0r	0r
4F	2.c	.	.
4E	.	.	.
4D	.	.	.
4C	8BnXiL	.	.
.	8AJ	.	.
2D	2Bni	.	.
=15	=15	=15	=15
1C	1c	1r	2r
.	.	.	1cc
1r	1F	[1f	.
.	.	.	2a
=16	=16	=16	=16
0r	0r	2f]	2cc
.	.	2d	2.dd
.	.	1f	.
.	.	.	4cc
.	.	.	4b-y
.	.	.	4a
=17	=17	=17	=17
0r	1r	2e	2g
.	.	2f	2a
.	2r	1g	2b-y
.	[2c	.	2cc
=18	=18	=18	=18
1.F	2c]	1a	2.f
.	2A	.	.
.	.	.	4g
.	2c	[1f	[1a
2D	[2d	.	.
=19	=19	=19	=19
1F	4d]	1f]	1a]
.	4c	.	.
.	4B-y	.	.
.	4A	.	.
2E	2G	1r	1r
2F	2A	.	.
=20	=20	=20	=20
1G	2.B-y	0r	2r
.	.	.	2b-y
.	8AL	.	.
.	8GJ	.	.
1A	2F	.	2.cc
.	[2f	.	.
.	.	.	8b-yL
.	.	.	8ccJ
=21	=21	=21	=21
0F	2f]	1.a	4dd
.	.	.	4cc
.	4e	.	2.ff
.	4d	.	.
.	2c	.	.
.	.	.	4ee
.	[2d	2a	4dd
.	.	.	4cc
=22	=22	=22	=22
0G	2d]	2g	4b-y
.	.	.	4g
.	2G	4f	2.cc
.	.	4e	.
.	2.B-y	4d	.
.	.	4c	8b-yL
.	.	.	8aJ
.	.	2d	2b-y
.	4A	.	.
=23	=23	=23	=23
0C	2.G	0c	2cc
.	.	.	2g
.	8FL	.	.
.	8GJ	.	.
.	2A	.	[1cc
.	2G	.	.
=24	=24	=24	=24
0r	1F	1.f	2cc]
.	.	.	2b-y
.	2r	.	1a
.	2F	2f	.
=25	=25	=25	=25
1C	1.c	1e	1g
[1F	.	1c	[1a
.	2B-y	.	.
=26	=26	=26	=26
2F]	2A	1.f	1a]
2E	2G	.	.
2D	1F	.	2r
2D	.	2f	2a
=27	=27	=27	=27
2C	2G	1e	2cc
2G	2B-y	.	2.b-y
[1B-y	4G	1d	.
.	4A	.	4a
.	4B-y	.	2f
.	4c	.	.
=28	=28	=28	=28
2B-]	4d	2r	2g
.	4e	.	.
2A	2f	2c	2a
2G	2.B-y	2d	1b-y
2G	.	2e	.
.	4c	.	.
=29	=29	=29	=29
1F	2d	0f	0a
.	2c	.	.
2r	2r	.	.
2F	2f	.	.
=30	=30	=30	=30
2.c	2.e	0r	0r
4B-y	4d	.	.
2A	2c	.	.
2F	2c	.	.
=31	=31	=31	=31
2.B-y	1d	1r	2r
.	.	.	2f
8AL	.	.	.
8GJ	.	.	.
1F	2r	2r	2.cc
.	2A	2f	.
.	.	.	4b-y
=32	=32	=32	=32
2r	2.c	2.e	2a
2C	.	.	2g
.	4B-y	4d	.
2.F	2A	2c	[1a
.	2G	2c	.
4E	.	.	.
=33	=33	=33	=33
2D	1F	1d	2a]
2BB-y	.	.	2b-y
2.F	2r	2r	2.a
.	2F	2f	.
8EL	.	.	8gL
8DJ	.	.	8fJ
=34	=34	=34	=34
1.C	2.c	2.e	4g
.	.	.	4f
.	.	.	4e
.	8B-yL	4f	4d
.	8AJ	.	.
.	2G	2g	4e
.	.	.	4d
2C	2E	[2c	[2g
=35	=35	=35	=35
2D	1F	4c]	2g]
.	.	4BnXi	.
2D	.	4Bni	1f
.	.	4A	.
1C	1G	1c	.
.	.	.	2e
=36	=36	=36	=36
0Fl	0Fl	0cl	0fl
=37||	=37||	=37||	=37||
*M2/1	*M2/1	*M2/1	*M2/1
*met(C|)	*met(C|)	*met(C|)	*met(C|)
!!section: Agnus Dei II
!!!OMD: Agnus Dei II
0r	0c	0r	0r
=38	=38	=38	=38
1r	1c	0r	0r
[1F	1F	.	.
=39	=39	=39	=39
1F]	1.c	0r	0r
1F	.	.	.
.	2c	.	.
=40	=40	=40	=40
1BB-y	1B-y	0r	0r
[1F	2.A	.	.
.	4B-y	.	.
=41	=41	=41	=41
2F]	2c	0r	0r
2F	2.d	.	.
1E	.	.	.
.	4c	.	.
.	[2c	.	.
=42	=42	=42	=42
2.D	4c]	0r	0r
.	8B-yL	.	.
.	8AJ	.	.
.	2B-y	.	.
4E	.	.	.
2F	2A	.	.
[2G	[2B-y	.	.
=43	=43	=43	=43
4G]	4B-]	0r	0r
4F	4A	.	.
1F	4G	.	.
.	4F	.	.
.	1G	.	.
2E	.	.	.
=44	=44	=44	=44
0F	1F	0r	0r
.	2r	.	.
.	2c	.	.
=45	=45	=45	=45
2r	2c	0r	0r
2F	2F	.	.
2F	2c	.	.
2BB-y	[2d	.	.
=46	=46	=46	=46
2F	4d]	0r	0r
.	4c	.	.
2.G	4B-y	.	.
.	4A	.	.
.	2B-y	.	.
4F	.	.	.
4E	[2c	.	.
4D	.	.	.
=47	=47	=47	=47
2E	4c]	0r	0r
.	4B-y	.	.
2.F	4A	.	.
.	4G	.	.
.	4A	.	.
4E	4G	.	.
4D	[2c	.	.
4C	.	.	.
=48	=48	=48	=48
1D	2c]	0r	0r
.	2BnXi	.	.
1C	[1c	.	.
=49	=49	=49	=49
2r	1c]	0r	0r
2C	.	.	.
2D	1r	.	.
[2F	.	.	.
=50	=50	=50	=50
2F]	0c	0r	0r
4E	.	.	.
4D	.	.	.
2E	.	.	.
2F	.	.	.
=51	=51	=51	=51
1C	1c	0r	0r
1r	1F	.	.
=52	=52	=52	=52
0c	2r	0r	0r
.	2F	.	.
.	2E	.	.
.	[2F	.	.
=53	=53	=53	=53
1c	4F]	0r	0r
.	4G	.	.
.	4A	.	.
.	4B-y	.	.
1F	4c	.	.
.	4F	.	.
.	[2f	.	.
=54	=54	=54	=54
1.B-y	4f]	0r	0r
.	4e	.	.
.	4d	.	.
.	4c	.	.
.	2d	.	.
2B-y	[2g	.	.
=55	=55	=55	=55
1A	4g]	0r	0r
.	4f	.	.
.	1f	.	.
1G	.	.	.
.	2e	.	.
=56	=56	=56	=56
1F	1f	0r	0r
2r	1r	.	.
2BB-y	.	.	.
=57	=57	=57	=57
2AA	0f	0r	0r
2.BB-y	.	.	.
4C	.	.	.
4D	.	.	.
4E	.	.	.
=58	=58	=58	=58
4F	1f	0r	0r
4BB-y	.	.	.
2.B-y	.	.	.
.	1c	.	.
8AL	.	.	.
8GJ	.	.	.
2A	.	.	.
=59	=59	=59	=59
2D	1.f	0r	0r
4BB-y	.	.	.
4C	.	.	.
4D	.	.	.
4E	.	.	.
4F	2f	.	.
4G	.	.	.
=60	=60	=60	=60
4A	1e	0r	0r
4B-y	.	.	.
2.c	.	.	.
.	1d	.	.
8BnXiL	.	.	.
8AJ	.	.	.
2Bni	.	.	.
=61	=61	=61	=61
0c	1c	0r	0r
.	2r	.	.
.	2F	.	.
=62	=62	=62	=62
2r	2F	0r	0r
2C	2G	.	.
2.C	4A	.	.
.	4G	.	.
.	[2c	.	.
4D	.	.	.
=63	=63	=63	=63
2E	4c]	0r	0r
.	4B-y	.	.
2F	4A	.	.
.	4G	.	.
1D	2B-y	.	.
.	2A	.	.
=64	=64	=64	=64
2r	2B-y	0r	0r
2C	2A	.	.
2.C	2G	.	.
.	[2c	.	.
4D	.	.	.
=65	=65	=65	=65
2E	4c]	0r	0r
.	4B-y	.	.
2F	4A	.	.
.	4G	.	.
1D	1F	.	.
=66	=66	=66	=66
2r	1A	0r	0r
2F	.	.	.
2E	2G	.	.
2G	2B-y	.	.
=67	=67	=67	=67
2F	2A	0r	0r
2E	2G	.	.
1F	2.F	.	.
.	4G	.	.
=68	=68	=68	=68
1r	4A	0r	0r
.	4B-y	.	.
.	4c	.	.
.	4A	.	.
1D	2B-y	.	.
.	[2A	.	.
=69	=69	=69	=69
2C	2A]	0r	0r
2E-i	2G	.	.
2D	2B-y	.	.
2C	2A	.	.
=70	=70	=70	=70
2.BB-y	2G	0r	0r
.	2.F	.	.
4C	.	.	.
4D	.	.	.
4E	4G	.	.
[2F	4A	.	.
.	4B-y	.	.
=71	=71	=71	=71
4F]	2.c	0r	0r
4E	.	.	.
4C	.	.	.
4D	4B-y	.	.
4E	4G	.	.
4F	4A	.	.
[2G	[2B-y	.	.
=72	=72	=72	=72
4G]	4B-]	0r	0r
4F	4A	.	.
1F	4G	.	.
.	4F	.	.
.	1G	.	.
2E	.	.	.
=73	=73	=73	=73
0Fl	0Fl	0r	0r
=74||	=74||	=74||	=74||
*M2/1	*M2/1	*M2/1	*M2/1
*met(C|)	*met(C|)	*met(C|)	*met(C|)
!!section: Agnus Dei III
!!!OMD: Agnus Dei III
0r	0r	1f	0r
.	.	2f	.
.	.	2g	.
=75	=75	=75	=75
0r	0r	2.f	1cc
.	.	8eL	.
.	.	8dJ	.
.	.	2c	2cc
.	.	2B-y	2dd
=76	=76	=76	=76
0r	0r	2.f	1.cc
.	.	8eL	.
.	.	8dJ	.
.	.	4e	.
.	.	4f	.
.	.	[2g	2b-y
=77	=77	=77	=77
1F	0r	4g]	1a
.	.	4f	.
.	.	2.f	.
2F	.	.	1r
.	.	8eL	.
.	.	8dJ	.
2G	.	2e	.
=78	=78	=78	=78
2.F	1c	2f	0r
.	.	2A	.
8EL	.	.	.
8DJ	.	.	.
2C	2c	2A	.
2BB-y	2d	2B-y	.
=79	=79	=79	=79
2.F	1.c	2.A	0r
8EL	.	8GL	.
8DJ	.	8FJ	.
4E	.	1G	.
4F	.	.	.
[2G	2B-y	.	.
=80	=80	=80	=80
4G]	1A	2A	1.cc
4F	.	.	.
1F	.	2F	.
.	1r	1G	.
2E	.	.	2cc
=81	=81	=81	=81
2F	1r	2A	1cc
2.F	.	4F	.
.	.	4G	.
.	[1f	4A	1a
4G	.	4B-y	.
4A	.	2A	.
4B-y	.	.	.
=82	=82	=82	=82
4A	2f]	2F	0r
4F	.	.	.
2.B-y	2f	1d	.
.	1f	.	.
8AL	.	.	.
8GJ	.	.	.
2A	.	[2c	.
=83	=83	=83	=83
2B-y	1d	2c]	2r
2BB-y	.	2B-y	2.f
[1F	1r	2c	.
.	.	.	4g
.	.	2A	4a
.	.	.	4b-y
=84	=84	=84	=84
2F]	1.f	2c	4a
.	.	.	4f
2BB-y	.	2d	2.b-y
1F	.	1c	.
.	.	.	8aL
.	.	.	8gJ
.	2f	.	2a
=85	=85	=85	=85
2.BB-y	1f	2r	1b-y
.	.	2.F	.
4C	.	.	.
4D	1d	.	[1a
4E	.	4G	.
[2F	.	4A	.
.	.	4B-y	.
=86	=86	=86	=86
4F]	0f	4A	1a]
4E	.	4G	.
4D	.	2.c	.
4C	.	.	.
1D	.	.	2r
.	.	8B-yL	.
.	.	8AJ	.
.	.	2B-y	2b-y
=87	=87	=87	=87
2r	1e	2.c	2g
1A	.	.	2a
.	.	4B-y	.
.	2c	2A	2f
2G	[2d	2B-y	2g
=88	=88	=88	=88
2F	4d]	2c	2a
.	4c	.	.
2E	1c	2G	2g
2D	.	2r	2f
2BB-y	2B-y	[2F	2b-y
=89	=89	=89	=89
1.F	0c	4F]	2.a
.	.	4G	.
.	.	4A	.
.	.	4B-y	4g
.	.	2A	2f
2E	.	2G	[2g
=90	=90	=90	=90
2D	0r	2A	4g]
.	.	.	4f
2BB-y	.	2B-y	1f
1C	.	1G	.
.	.	.	2e
=91	=91	=91	=91
0F	0r	2F	2.f
.	.	2.f	.
.	.	.	4g
.	.	.	4a
.	.	4e	4b-y
.	.	4d	[2cc
.	.	4c	.
=92	=92	=92	=92
0r	1f	1d	2cc]
.	.	.	2bnXi
.	2f	2r	[1cc
.	2g	2c	.
=93	=93	=93	=93
2.F	1.f	2.A	0cc]
4G	.	4B-y	.
4A	.	1c	.
4B-y	.	.	.
[2c	2e	.	.
=94	=94	=94	=94
4c]	1d	1G	0r
8BnXiL	.	.	.
8AJ	.	.	.
2Bni	.	.	.
2c	1c	1r	.
2A	.	.	.
=95	=95	=95	=95
2.B-y	2d	0r	2.f
.	2.f	.	.
8AL	.	.	4g
8GJ	.	.	.
2F	.	.	4a
.	4e	.	4b-y
2A	4d	.	[2cc
.	4c	.	.
=96	=96	=96	=96
1G	2.d	2.B-y	4cc]
.	.	.	8b-yL
.	.	.	8aJ
.	.	.	2b-y
.	8cL	4c	.
.	8B-yJ	.	.
2.F	4A	4d	2r
.	4G	4e	.
.	4F	[2f	2a
4E	4G	.	.
=97	=97	=97	=97
2D	4A	2f]	2f
.	4B-y	.	.
2C	2.c	2e	2g
1D	.	1f	2.b-y
.	8B-yL	.	.
.	8AJ	.	.
.	2B-y	.	.
.	.	.	4a
=98	=98	=98	=98
0r	0c	2e	2g
.	.	2.f	2a
.	.	.	1g
.	.	8eL	.
.	.	8dJ	.
.	.	2e	.
=99	=99	=99	=99
1D	1r	2d	1f
.	.	2.f	.
[1D	1A	.	1r
.	.	4e	.
.	.	4d	.
.	.	4c	.
=100	=100	=100	=100
2D]	1.A	1d	1a
4C	.	.	.
4BB-y	.	.	.
1F	.	1c	[1a
.	4G	.	.
.	4F	.	.
=101	=101	=101	=101
2r	1c	2.F	2a]
2.F	.	.	4g
.	.	4G	4f
.	2.F	4A	1cc
4G	.	4B-y	.
4A	.	[2c	.
4B-y	4G	.	.
=102	=102	=102	=102
2c	4A	4c]	1a
.	4B-y	4d	.
2A	2.c	4e	.
.	.	4f	.
1G	.	2g	1b-y
.	4B-y	.	.
.	4B-y	2d	.
.	4A	.	.
=103	=103	=103	=103
4C	2c	1e	0g
4D	.	.	.
4E	2G	.	.
4F	.	.	.
2G	2.B-y	2d	.
2E-X	.	2G	.
.	4c	.	.
=104	=104	=104	=104
1D	1d	2A	2f
.	.	2f	2.a
1r	2B-y	2d	.
.	.	.	4g
.	2c	2e	[2g
=105	=105	=105	=105
2r	1A	2c	2g]
2D	.	2d	2f#i
2E	[1G	2B-y	2g
2C	.	2e-i	[2cc
=106	=106	=106	=106
1G	1G]	1d	4cc]
.	.	.	8bnXiL
.	.	.	8aJ
.	.	.	2bni
2A	2r	2c	2cc
2F	2c	2f	2a
=107	=107	=107	=107
2C	4c	2e	2g
.	4B-y	.	.
1D	4A	2f	2a
.	4G	.	.
.	2A	2d	2f
2BB-y	2B-y	[2f	[2b-y
=108	=108	=108	=108
[0F	1c	2f]	2b-]
.	.	4e	4a
.	.	4d	4g
.	2r	4c	1a
.	.	4B-y	.
.	2c	4A	.
.	.	4G	.
=109	=109	=109	=109
1F]	4c	2.A	2r
.	4B-y	.	.
.	4A	.	1cc
.	4G	4B-y	.
2r	2A	2c	.
2G	2B-y	2g	2b-y
=110	=110	=110	=110
2A	1c	2e	1a
2F	.	4f	.
.	.	4e	.
2.B-y	1G	4d	[1b-y
.	.	4c	.
.	.	[2f	.
4A	.	.	.
=111	=111	=111	=111
1G	2B-y	4f]	1b-]
.	.	8eL	.
.	.	8dJ	.
.	2c	2e	.
[1F	1d	2f	2r
.	.	4F	2a
.	.	4G	.
=112	=112	=112	=112
2F]	1.c	4A	2.cc
.	.	4B-y	.
4E	.	4c	.
4D	.	4d	4b-y
[1C	.	[1e	2a
.	4B-y	.	[2g
.	4A	.	.
=113	=113	=113	=113
0C]	4B-y	2e]	4g]
.	4A	.	4f
.	4G	2d	1f
.	4F	.	.
.	1G	1c	.
.	.	.	2e
=114	=114	=114	=114
0Fl	0Fl	0cl	0fl
==	==	==	==
*-	*-	*-	*-
!!!system-decoration: s1,s2,s3,s4
!!!RDF**kern: i = editorial accidental
!!!RDF**kern: l = terminal long
!!!ENC: Maura Sugg
!!!END: 2026/5/13
!!!EED: Benjamin Ory
!!!EEV: 2026/05/26
!!!YEC: Copyright 2026 Irene Holzer, All Rights Reserved
!!!ONB: Translated from MusicXML on 2026/05/26
!!!verovio: header encoded
!!!header-left: Edited by Irene Holzer\n
!!!header-right:
!!!header-center:
!!muse2ps: T^@{OPR}^u^@{ONM}{. }@{OTL}^C^@{COM}^i2I150v90,90,90,120c120z18l2770t130
